X: 282
T: the Gentle Maiden
B: O'Neill's 282
N: "Slow"
Z: 1997 by John Chambers <jc@trillian.mit.edu>
M: 6/8
L: 1/8
K:G
F \
| (G>AG) (F>ED) | d3 (e>fg) | (d>cB) A2G | E3- E2F \
| (G>AG) (F>ED) | d3 (e>fg) | (d>cB) (A2{BA}G) | G3- G2 ||
|| d \
| (d>ef) g2g | g3 (g>fe) | d>cB {B}A2G | E3- E2F \
| (G>AG) (F>ED) | d3 (e>fg) | (d>cB) (A2{BA}G) | G3- G2 ||


